src/assets/svg/icons/fa/nuevos/classic/light/scanner-gun classic light.svg

<svg xmlns="http://www.w3.org/2000/svg" viewBox="0 0 576 512"><!--! Font Awesome Pro 6.4.0 by @fontawesome - https://fontawesome.com License - https://fontawesome.com/license (Commercial License) Copyright 2023 Fonticons, Inc. --><path d="M112 64c-44.2 0-80 35.8-80 80s35.8 80 80 80H242.9 280h24c8.8 0 16-7.2 16-16V80c0-8.8-7.2-16-16-16H112zM80 251.4C33.8 237.6 0 194.7 0 144C0 82.1 50.1 32 112 32H304c26.5 0 48 21.5 48 48V208c0 26.5-21.5 48-48 48H261.2L144.3 454.6c-13.4 22.8-42.9 30.5-65.7 17L25.2 440.2C2.4 426.8-5.2 397.5 8.1 374.7L80 251.4zm34.3 4.6L35.7 390.8c-4.4 7.6-1.9 17.4 5.7 21.9l53.4 31.4c7.6 4.5 17.4 1.9 21.9-5.7L224.1 256H114.4zM432 32H560c8.8 0 16 7.2 16 16s-7.2 16-16 16H432c-8.8 0-16-7.2-16-16s7.2-16 16-16zm-16 80c0-8.8 7.2-16 16-16H560c8.8 0 16 7.2 16 16s-7.2 16-16 16H432c-8.8 0-16-7.2-16-16zm16 80H560c8.8 0 16 7.2 16 16s-7.2 16-16 16H432c-8.8 0-16-7.2-16-16s7.2-16 16-16zm-16 80c0-8.8 7.2-16 16-16H560c8.8 0 16 7.2 16 16s-7.2 16-16 16H432c-8.8 0-16-7.2-16-16zm16 48H560c8.8 0 16 7.2 16 16s-7.2 16-16 16H432c-8.8 0-16-7.2-16-16s7.2-16 16-16zM416 464c0-8.8 7.2-16 16-16H560c8.8 0 16 7.2 16 16s-7.2 16-16 16H432c-8.8 0-16-7.2-16-16z"/></svg>

<svg xmlns="http://www.w3.org/2000/svg" viewBox="0 0 576 512"><path d="M80.03 251.4C33.75 237.6 0 194.7 0 144C0 82.14 50.14 32 112 32H304C330.5 32 352 53.49 352 80V208C352 234.5 330.5 256 304 256H261.2L144.3 454.6C130.9 477.5 101.5 485.1 78.63 471.7L25.22 440.2C2.432 426.8-5.225 397.5 8.098 374.7L80.03 251.4zM32 144C32 188.2 67.82 224 112 224H304C312.8 224 320 216.8 320 208V80C320 71.16 312.8 64 304 64H112C67.82 64 32 99.82 32 144zM114.4 256L35.74 390.8C31.3 398.4 33.85 408.2 41.45 412.7L94.85 444.1C102.5 448.6 112.3 446 116.8 438.4L224.1 255.1L114.4 256zM560 32C568.8 32 576 39.16 576 48C576 56.84 568.8 64 560 64H432C423.2 64 416 56.84 416 48C416 39.16 423.2 32 432 32H560zM416 112C416 103.2 423.2 96 432 96H560C568.8 96 576 103.2 576 112C576 120.8 568.8 128 560 128H432C423.2 128 416 120.8 416 112zM560 192C568.8 192 576 199.2 576 208C576 216.8 568.8 224 560 224H432C423.2 224 416 216.8 416 208C416 199.2 423.2 192 432 192H560zM416 272C416 263.2 423.2 256 432 256H560C568.8 256 576 263.2 576 272C576 280.8 568.8 288 560 288H432C423.2 288 416 280.8 416 272zM560 320C568.8 320 576 327.2 576 336C576 344.8 568.8 352 560 352H432C423.2 352 416 344.8 416 336C416 327.2 423.2 320 432 320H560zM416 464C416 455.2 423.2 448 432 448H560C568.8 448 576 455.2 576 464C576 472.8 568.8 480 560 480H432C423.2 480 416 472.8 416 464z"/></svg>
